X: 15078
T: Gerry's Digger
R: reel
M: 4/4
K: Dmajor
|:AE E2 AcBA|GABG dGBG|AE E2 AcBA|GABd eA A2|
AE E2 AcBA|GABG dGBG|AGAB cdea|gedB cA A2:|
|:AceA ceag|(3efg dc BGdG|AceA ceag|egdg ea a2|
AceA ceag|(3efg dc BGAB|cBcd eaaf|gedB cA A2:|

